X:30
T:Paddy's Whack
A:Wyresdale, Lancashire
B:E and J Winder, 1835-41
L:1/8
M:6/8
O:England
Z:Richard Robinson 
%%RRN:"1834"
%%TUNEURL: http://www.leeds.ac.uk/music/Info/RRTuneBk/gettune/00000e87.html
%%ID:00000e87
K:G
D |\
GBd gfg | edc BAG | GBd gfg | fdd d2e/f/ | \
geg fdB | cec dBG | GBd cAc | BGG G3 ::
c |\
BdB cec | dBG A2G | Bcd efg | fdd d2(e/f/) |\
geg fdB | cec dBG | GBd cAc | BGG G3 |]
%%newpage
%page 3
